icon/cg/corner-down-right.svg

<svg viewBox="0 0 24 24" fill="none" xmlns="http://www.w3.org/2000/svg" height="1em" width="1em">
  <path d="M6.85046 13.4005C5.74589 13.4005 4.85046 12.5051 4.85046 11.4005V3.40051H2.85046V11.4005C2.85046 13.6097 4.64132 15.4005 6.85046 15.4005H17.156L13.3714 19.1852L14.7856 20.5994L21.1495 14.2354L14.7856 7.87146L13.3714 9.28567L17.4862 13.4005H6.85046Z" fill="currentColor"/>
</svg>

<svg width="24" height="24" fill="none" xmlns="http://www.w3.org/2000/svg"><path d="M6.85 13.4a2 2 0 0 1-2-2v-8h-2v8a4 4 0 0 0 4 4h10.306l-3.785 3.785 1.415 1.414 6.364-6.364-6.364-6.364-1.415 1.415 4.115 4.114H6.85Z" fill="currentColor"/></svg>
